X:213
T:Russian Dance. VWMLa.213
%%VWML:Anon2-3049-p133-0
F:http://www.vwml.org/record/Anon2/3049/p133
S:Anon. MS, late 18thC, Vaughan Williams Mem. Library
O:England;Yorkshire
Z:vmp/efdss.Simon Wilson. Reviewed PJH 2008.
M:2/4
L:1/8
Q:1/4=120
K:A
e3f/d/|cccB|AB/G/ AB/G/|ABcd|\
e3f/d/|cccB|AB/G/ AB/G/|A2A,2:|
|:c3d/B/|AAAB|cagf|f2e2|\
c3d/B/|AAAB|cabg|a2A2:|
